src/components/Icon/assets/sent-filled.svg

<svg width="24" height="24" viewBox="0 0 24 24" fill="none" xmlns="http://www.w3.org/2000/svg">
<g clip-path="url(#clip0)">
<path fill-rule="evenodd" clip-rule="evenodd" d="M20.9186 4.01067L2.91895 4.01044C2.51794 4.00987 2.15508 4.24939 1.99895 4.61896C1.84146 4.98818 1.92039 5.41488 2.19802 5.70376L7.74779 11.4762L17.7176 6.45454L18.0686 7.06249L8.74519 13.2098L10.9214 20.9311C11.0307 21.3184 11.3609 21.6023 11.7599 21.6514C11.9807 21.6798 12.1991 21.6322 12.3836 21.5257C12.5326 21.4397 12.6604 21.3151 12.7501 21.1605L21.7846 5.51062C21.964 5.20147 21.9636 4.82068 21.7846 4.51065C21.6061 4.20148 21.2765 4.01069 20.9186 4.01067" fill="#65676A"/>
</g>
<defs>
<clipPath id="clip0">
<rect width="24" height="24" fill="white"/>
</clipPath>
</defs>
</svg>

<svg xmlns="http://www.w3.org/2000/svg" width="24" height="24" viewBox="0 0 24 24">
    <path fill="#65676A" fill-rule="evenodd" d="M20.919 4.01h-18c-.401 0-.764.24-.92.609-.158.37-.079.796.199 1.085l5.55 5.772 9.97-5.021.35.607-9.323 6.148 2.176 7.721c.11.387.44.671.839.72.22.029.44-.019.624-.125.149-.086.276-.21.366-.365l9.035-15.65c.179-.31.179-.69 0-1-.179-.31-.508-.5-.866-.5"/>
</svg>
